X:109
T:Beaumont's Fancy. ThoH.109
Q:1/2=90
M:C|
L:1/8
B:Thompson's Compleat Collection of 120 Favourite Hornpipes.
Z:Village Music Project, Simon Wilson 2016
O:England.
K:Bb
F2|B4-BdcB|Ace4dc|B4-BdcB|cAF4E2|
DFED EGFE|FAc2Ace2|d2cBA2B2|c4-c2:|
|:((3FED)|E4-EGFE|DFB4D2|E4EGFE|DFB4D2|EGc4E2|FAd4F2|
GBe4G2|Acf4e2-|e2d4cB|cAF4E2|DFBD FEDC|B,6:|

